icons/desktop/16/svg/fingerprinter-slash-16.svg

<svg width="16" height="16" viewBox="0 0 16 16" fill="none" xmlns="http://www.w3.org/2000/svg">
<path d="M6.63281 0.304119C9.72779 -0.478874 13.177 0.802992 14.834 3.35295L14.832 3.35197C16.021 5.18397 17.2993 9.16949 12.4883 15.2885L12.1152 15.7494C11.9783 15.9003 11.7842 15.9993 11.5645 15.9994C11.1506 15.9994 10.8147 15.6632 10.8145 15.2494C10.8145 15.0795 10.8807 14.9301 10.9756 14.8041L11.3086 14.3588C14.4465 10.369 15.2519 6.75033 13.5752 4.16935C12.2582 2.14035 9.488 1.12924 7 1.75724C4.71003 2.33726 3.24138 4.15129 2.94238 6.75627C2.93227 7.16105 2.60211 7.48754 2.19434 7.48771C1.78134 7.48771 1.44831 7.1546 1.44531 6.7426C1.77244 3.44791 3.69706 1.04714 6.63281 0.304119Z" fill="black"/>
<path d="M5.00977 5.8383C5.33485 3.81282 7.38664 2.60042 9.4375 2.9301C11.4706 3.25716 13.0284 5.02378 12.7373 7.02677C12.7367 7.03881 12.7363 7.05341 12.7354 7.06974C12.7324 7.12161 12.728 7.19554 12.7197 7.28752C12.7031 7.4716 12.6729 7.73254 12.6191 8.04924C12.5117 8.68175 12.3079 9.5486 11.9209 10.4887C11.1447 12.3742 9.616 14.5841 6.64551 15.7465L6.64453 15.7455L6.20605 15.936C5.82595 16.1 5.38503 15.9253 5.2207 15.5453C5.0567 15.1652 5.23129 14.7233 5.61133 14.559L6.07422 14.3588L6.08691 14.3539L6.09863 14.349C8.58394 13.3765 9.86439 11.5421 10.5332 9.9174C10.8685 9.10283 11.0462 8.34749 11.1396 7.79728C11.1862 7.52318 11.2121 7.30139 11.2256 7.15177C11.2323 7.07766 11.2362 7.02099 11.2383 6.98478C11.2393 6.96697 11.2399 6.9533 11.2402 6.94572C11.2404 6.94209 11.2402 6.93791 11.2402 6.93791L11.2412 6.88908L11.25 6.84025C11.4194 5.78713 10.5938 4.6359 9.19922 4.41154C7.82434 4.19053 6.6942 4.99802 6.5 6.03068V7.24943C6.5 9.04465 5.04521 10.4994 3.25 10.4994H0.75C0.335786 10.4994 0 10.1636 0 9.74943C0.000326833 9.3355 0.335988 8.99943 0.75 8.99943H3.25C4.21679 8.99943 5 8.21622 5 7.24943V5.89689L5.00977 5.8383Z" fill="black"/>
<path d="M8.75 6.25041C9.16421 6.25041 9.5 6.58619 9.5 7.00041V7.75041C9.4998 10.9255 6.92509 13.5004 3.75 13.5004H0.75C0.335909 13.5004 0.000197845 13.1645 0 12.7504C0 12.3362 0.335786 12.0004 0.75 12.0004H3.75C6.09666 12.0004 7.9998 10.097 8 7.75041V7.00041C8 6.58619 8.33579 6.25041 8.75 6.25041Z" fill="black"/>
</svg>

<!-- This Source Code Form is subject to the terms of the Mozilla Public
   - License, v. 2.0. If a copy of the MPL was not distributed with this
   - file, You can obtain one at http://mozilla.org/MPL/2.0/. -->
<svg xmlns="http://www.w3.org/2000/svg" width="16" height="16" fill="context-fill" fill-opacity="context-fill-opacity" viewBox="0 0 16 16">
    <path d="M6.633.304c3.095-.783 6.544.499 8.201 3.049l-.002-.001c1.189 1.832 2.467 5.817-2.344 11.937l-.373.46a.743.743 0 0 1-1.3-.5c0-.17.066-.319.16-.445l.334-.445c3.138-3.99 3.943-7.609 2.266-10.19C12.258 2.14 9.488 1.13 7 1.757c-2.29.58-3.759 2.394-4.058 5a.75.75 0 0 1-1.497-.014C1.772 3.448 3.697 1.047 6.633.304" />
    <path d="M5.01 5.838C5.335 3.813 7.387 2.6 9.438 2.93c2.033.327 3.59 2.094 3.3 4.097l-.003.043-.015.218a10 10 0 0 1-.1.761c-.108.633-.312 1.5-.7 2.44-.775 1.885-2.304 4.095-5.274 5.257h-.001l-.439.19a.75.75 0 0 1-.595-1.377l.463-.2.013-.005.012-.005c2.485-.973 3.765-2.807 4.434-4.432a10 10 0 0 0 .693-2.765 5 5 0 0 0 .014-.206v-.008l.001-.049.009-.049c.17-1.053-.656-2.204-2.05-2.428-1.376-.221-2.506.586-2.7 1.619v1.218a3.25 3.25 0 0 1-3.25 3.25H.75a.75.75 0 0 1 0-1.5h2.5A1.75 1.75 0 0 0 5 7.25V5.897z" />
    <path d="M8.75 6.25A.75.75 0 0 1 9.5 7v.75a5.75 5.75 0 0 1-5.75 5.75h-3a.75.75 0 0 1 0-1.5h3A4.25 4.25 0 0 0 8 7.75V7a.75.75 0 0 1 .75-.75" />
</svg>
